X: 304
T: Happy Clown
P: Longways for as many as will
%R: jig
B: "The Dancing-Master" printed by John Walsh, London
S: 6: CCDM1 http://imslp.org/wiki/The_Compleat_Country_Dancing-Master_(Various) V.1 p.13 #26
Z: 2012-2013 John Chambers <jc:trillian.mit.edu>
M: 6/8
L: 1/8
K: G
% - - - - - - - - - - - - - - - - - - - - - - - - -
d |\
G2A B>AG | d2d d2g | f2e d2c | B2A G2d |\
G2A B>AG | d2d d2g | f2e e2d | d3- d2 |]
d |\
dBc d>ed | c2B c3 | cAB c>dc | B2A B2d |\
g2d g2d | g3- g>fe | dcB A2G | G3- G2 |]
% - - - - - - - - - - - - - - - - - - - - - - - - -
%%begintext align
%% First Cu. cross over, and turn Hands with the 2d Cu. .|  Cast up
%% into your own Place, all four Back to Back with your own :|  All
%% four set, turn single, give three Jumps (with the Time of
%% the Tune) and turn single .|  Then cast off, and figure into
%% the 2d Cu. Place :|
%%endtext

%%sep 1 1 500
%%sep 1 1 500
